X: 84
T:Kilmoulis Jig
R:Jig
Z:Added by alf.
M:6/8
L:1/8
K:D
A|ded cdc|BcB ABA|GAG FGF|FED E2A|
f2f efe|d2F FEF|GFG B2B|AFD D2e||
f2f efe|d2F FEF|GFG BAB|ABd e2e|
f2f efe|d2F FEF|GFG BAB|AFD D2e|
|:f2f fed|g2g gfe|f2f fed|dcB A2e|
f2f fed|g2g gfe|fef afd|cBc d2e:|
dfa dfa|c2e ecA|gfe fed|B2e e2|
dfa dfa|c2e ecA|gfe fed|FEF G2:|
